X:2826
T:Chang'tu
C:Y. Dour 7
M:4/4
L:1/8
K:G
D2|BcBA B2G2|ABcB A2 D2|BcBA G2 B2|\
AGFA G2:|G2|ccBA B2 GG|
ccdc B3G|:B2 Bd G2 BB|AGFG A2 A2|\
B2 Bd G2 BB|AGFA G4:|


